X:51
T:Fisher's Hornpipe
M:4/4
K:D
L:1/8
ABc || "D" dAFA "G" GBAG | "D" FEDF "G" GBAG | "D" FEDF "G" GBAG | "D" FEDF "A" EABc |
       "D" dAFA "G" GBAG | "D" FEDF "G" GBAG | "D" FGAB "A" cdec | "D" dfec "D" d4 ||
"A" ecAc ecAc | "D" fdAd fdAd | "A" ecAc eAfe | "E7" dcBc "A" A2FA |
"G" BGDG BcdB | "D" AFDF dcdB | "A" Acce gece | "D" dfec d4 |]

